octoprint_obico/static/img/logo-square.svg

<svg width="90" height="88" viewBox="0 0 90 88" fill="none" xmlns="http://www.w3.org/2000/svg">
<g clip-path="url(#clip0_37_31)">
<path fill-rule="evenodd" clip-rule="evenodd" d="M44.6301 0C54.5225 0.00413561 64.1333 3.29485 71.9521 9.35506C79.771 15.4153 85.3548 23.9015 87.8262 33.4803C90.2976 43.0591 89.5165 53.1875 85.6056 62.2741C81.6947 71.3606 74.8757 78.8903 66.2201 83.68C66.8401 71.05 66.69 56.01 59.42 50.92C59.3783 50.7262 59.3582 50.5283 59.3601 50.33C61.4798 48.9336 63.2205 47.0335 64.4263 44.7998C65.6322 42.5661 66.2656 40.0684 66.2701 37.53V36.47C66.266 32.4452 64.6783 28.5836 61.85 25.72C63.8872 23.2035 65.0554 20.0953 65.1801 16.86C63.9042 18.1099 62.5371 19.263 61.09 20.31C59.1539 21.7109 57.0636 22.8852 54.8601 23.81C44.5301 28.07 33.0501 25.81 23.9501 16.86C24.0774 20.1881 25.3088 23.3791 27.4501 25.93C24.7445 28.7726 23.2339 32.5457 23.23 36.47V37.53C23.2355 40.1025 23.8866 42.6324 25.1236 44.888C26.3605 47.1435 28.1438 49.0525 30.31 50.44C30.31 50.6933 30.29 50.9533 30.25 51.22L30.18 51.31C22.05 57.5 22.5 75.52 31.64 87.31C21.4185 84.1851 12.6578 77.4955 6.95121 68.4578C1.24461 59.4201 -1.02895 48.6344 0.54399 38.0622C2.11693 27.49 7.43188 17.8334 15.5224 10.8484C23.6128 3.86335 33.9415 0.0138996 44.6301 0V0Z" fill="#2D3E4F"/>
</g>
<defs>
<clipPath id="clip0_37_31">
<rect width="89.25" height="87.33" fill="white"/>
</clipPath>
</defs>
</svg>

<svg xmlns="http://www.w3.org/2000/svg" viewBox="0 0 89.25 87.33"><defs><style>.cls-1{fill:#98d1a6;fill-rule:evenodd;}</style></defs><g id="Layer_2" data-name="Layer 2"><g id="Warstwa_1" data-name="Warstwa 1"><path class="cls-1" d="M44.63,0A44.63,44.63,0,0,1,66.22,83.68c.62-12.63.47-27.67-6.8-32.76a2.68,2.68,0,0,1-.06-.59,15.36,15.36,0,0,0,6.91-12.8V36.47a15.32,15.32,0,0,0-4.42-10.75,15,15,0,0,0,3.33-8.86,36,36,0,0,1-4.09,3.45,31.27,31.27,0,0,1-6.23,3.5c-10.33,4.26-21.81,2-30.91-6.95a15,15,0,0,0,3.5,9.07,15.31,15.31,0,0,0-4.22,10.54v1.06a15.37,15.37,0,0,0,7.08,12.91q0,.38-.06.78l-.07.09c-8.13,6.19-7.68,24.21,1.46,36A44.63,44.63,0,0,1,44.63,0Z"/></g></g></svg>
